packages/icons/svg/24/Usagi.svg

<svg width="24" height="24" viewBox="0 0 24 24" fill="none" xmlns="http://www.w3.org/2000/svg">
<path fill-rule="evenodd" clip-rule="evenodd" d="M16.0002 15.5C16.5518 15.5 17 15.9476 17 16.5002C17 17.052 16.5518 17.5 16.0002 17.5C15.4482 17.5 15 17.052 15 16.5002C15 15.9476 15.4482 15.5 16.0002 15.5ZM9.52004 10.8367C9.09402 10.9878 8.731 11.1502 8.3505 11.3675C8.03423 10.339 7.51105 8.36085 7.51105 6.52729C7.51105 4.70301 8.08383 3.87247 8.61636 3.87247C9.36313 3.87247 9.52004 5.31582 9.52004 6.52729V10.8367ZM7.99939 17.5C7.44759 17.5 7 17.052 7 16.5002C7 15.9476 7.44759 15.5 7.99939 15.5C8.55241 15.5 9 15.9476 9 16.5002C9 17.052 8.55241 17.5 7.99939 17.5ZM20.4614 11.1999C18.9626 9.37277 16.6715 7.95447 16.6715 7.95447C16.6715 7.95447 15.8178 7.50002 15.1336 7.50002C14.9873 7.50002 14.8552 7.53193 14.734 7.58323C13.6941 7.77713 12.8592 8.91387 12.6218 10.4049C12.4311 10.3895 12.2388 10.3778 12.0445 10.3778C11.7018 10.3778 11.3563 10.4287 11.027 10.4732V6.52729C11.027 3.34006 9.9481 2.375 8.61636 2.375C7.28543 2.375 6.00409 3.60465 6.00409 6.52729C6.00409 8.89287 6.76753 11.4055 7.05941 12.2764C5.79149 13.4031 5 14.926 5 16.4441C5 20.4998 8.15375 21.5 12.0445 21.5C15.9349 21.5 19.0886 20.4998 19.0886 16.4441C19.0886 16.1419 19.05 15.8418 18.991 15.5436C18.4073 15.2273 17.7955 14.6808 17.1438 13.8846L14.6568 10.85C14.3303 10.7293 13.9889 10.6351 13.6397 10.5584C13.8958 10.2215 14.1576 9.9476 14.4035 9.73552C14.4133 9.74805 14.4153 9.76259 14.4247 9.77471C14.4247 9.77471 16.2064 11.9484 17.5341 13.5687C18.6105 14.8828 19.4658 15.3711 20.1451 15.3711C20.4968 15.3711 20.8013 15.2411 21.0647 15.027C21.8411 14.3988 21.957 13.0266 20.4614 11.1999Z" fill="#858585"/>
</svg>

<svg width="24" height="24" fill="none" xmlns="http://www.w3.org/2000/svg" viewBox="0 0 24 24"><path fill-rule="evenodd" clip-rule="evenodd" d="M16 15.5a1 1 0 110 2 1 1 0 010-2zm-6.48-4.663a6.966 6.966 0 00-1.17.53c-.316-1.028-.839-3.006-.839-4.84 0-1.824.573-2.655 1.105-2.655.747 0 .904 1.444.904 2.655v4.31zM8 17.5a1 1 0 110-2 1 1 0 010 2zm12.461-6.3c-1.498-1.827-3.79-3.246-3.79-3.246s-.853-.454-1.537-.454c-.147 0-.279.032-.4.083-1.04.194-1.875 1.33-2.112 2.822a7.162 7.162 0 00-.578-.027c-.342 0-.688.05-1.017.095V6.527c0-3.187-1.079-4.152-2.41-4.152-1.332 0-2.613 1.23-2.613 4.152 0 2.366.764 4.878 1.055 5.75C5.791 13.402 5 14.925 5 16.443 5 20.5 8.154 21.5 12.044 21.5c3.89 0 7.045-1 7.045-5.056a4.64 4.64 0 00-.098-.9c-.584-.317-1.195-.863-1.847-1.66l-2.487-3.034a7.695 7.695 0 00-1.017-.292c.256-.336.518-.61.763-.822.01.012.012.027.022.039l3.11 3.794c1.075 1.314 1.93 1.802 2.61 1.802.352 0 .656-.13.92-.344.776-.628.892-2-.604-3.827z" fill="currentColor"></path></svg>
